X:1
T:Reapers Are Needed (Gabriel)
T:Charles Hutchinson Gabriel, 1902
T:Reapers Are Needed (Gabriel)
T:Public Domain
T:Public Domain
T:Public Domain
T:Public Domain
T:Public Domain
C:Charles Hutchinson Gabriel, 1902
Z:Public Domain
%%score ( 1 2 ) ( 3 4 )
L:1/8
M:4/4
K:Eb
V:1 treble 
V:2 treble 
V:3 bass 
V:4 bass 
V:1
 [B,E][B,E][B,E][B,E] [B,E]>[B,F] [EG][FA] | [GB][GB][Gc][EG] [GB]4 | %2
w: 1.~Stand- ing in the mar- ket plac- es|all the sea- son through,|
w: 2.~Ev- ’ry sheaf you ga- ther will be-|come a jew- el bright|
w: 3.~Morn- ing hours are pass- ing, and the|ev- ’ning fol- lows fast;|
 [FA][B,A][DA][EA] [FA]>[EG] [DF][FA] | [EG][EG][E=A][EA] [DB]4 | %4
w: Id- ly say- ing, “Lord, is there no|work that I can do?”|
w: In the crown you hope to wear in|yon- der world of light.|
w: Soon the time of reap- ing will for-|ev- er- more be past.|
 [B,E][B,E][B,E][B,E] [B,E]>[B,F] [EG][FA] | [GB][GB][Gc][EG] [GB]4 | %6
w: O how ma- ny loi- ter, while the|Mas- ter calls a- new—|
w: Seek the gems im- mor- tal that are|pre- cious in His sight!|
w: Emp- ty hand- ed to the Mas- ter|will you go at last?|
 [GB] ([GB]2 =A/G/) [GB] ([GB]2 A/G/) | [^Fd]>[=E^c] [Fd]>([Ec] [Fd][Dd]/[Dd]/ [Dd][Dd]) || %8
w: “Reap- ers! * * reap- ers! * *|Who will work- today?” * * * * *|
w: “Reap- ers! * * reap- ers! * *|Who will work- today?” * * * * *|
w: “Reap- ers! * * reap- ers! * *|Who will work- today?” * * * * *|
"^Refrain" (GG)(GG) edcd | [EG]>[E^F] [EG]>[EF] (EEEE) | (GG)(GG) edcd | %11
w: Lift * thine * eyes and look up-|stand Ripe and rea- dy * * *|the * will- * ing glean- er’s hand,|
w: |||
w: Lift~thine * eyes~and * look ~ up- ~|stand~all~ready, Ripe~and ready for ~ * * *|~ * will- * ing glean- er’s hand,~O~rouse~ye,|
 [FA]>[=EG] [FA]>[EG] (FFFF) | [Af] [Af]2 [G=e] [Af][Ad][Ac][GB] | %13
w: ers! Ye are need- ed * * *|reap- ers! Who will be the first|
w: ||
w: ~ ~ ~ ~ ~ * * *|~ ~ ~ ~ ~ ~ ~|
 [Ge] [Ge]2 [Fd] [Ge][GB][EG][GB] | [F=A][FB][Fc][Fd] [Fe][Fc][Fd][Ae] | [Af]2 [Af]2 [Af]4 | %16
w: to an- swer, “Mas- ter, here am|I.” Far and wide the rip- ened grain|is bend- ing|
w: |||
w: ~ ~ ~ quick- ly, “Master, here~am|I.”~O~answer! Far~and wide~the rip- ~- ened ~ grain|is ben- ding|
 (GG)(GG) edcd | [EG]>[E^F] [EG]>[EF] (EEEE) | (GG)(GG) edcd | [FA]>[=EG] [FA]>[EG] (FFFF) | %20
w: low, * In * the breez- es gent-|and fro, Rouse ye, O * * *|ers! * Ye * are need- ed as|gold- en har- vest days * * *|
w: ||||
w: low,~In~breezes, * In~the * breezes gent- ~- ly|and fro~O~rouse~ye, * * * * * *|||
 [Af] [Af]2 [G=e] [Af][Ad][Ac][AB] | [Ge] [Ge]2 [Fd] [Ge][GB][EG][GB] | %22
w: swift- ly pass- ing by. * *||
w: ||
w: ||
 [Ac]>[A=B] [Ac][Ad] [^Fe][Fe][Fd][Fc] | [GB]2 [Ad]2 [Ge]4 |] %24
w: ||
w: ||
w: ||
V:2
 x8 | x8 | x8 | x8 | x8 | x8 | x8 | x8 || e2 e2 G2 G2 | x4 G4 | e2 e2 G2 G2 | x4 A4 | x8 | x8 | %14
w: ||||||||on the fields that|for|Rouse ye, O sleep-|as|||
w: ||||||||||||||
w: ||||||||on the fields that|the|~ ~ ~ ~|~|||
 x8 | x8 | e2 e2 G2 G2 | x4 G4 | e2 e2 G2 G2 | x4 A4 | x8 | x8 | x8 | x8 |] %24
w: ||ly wav- ing to|sleep-|reap- ers! And the|are|||||
w: ||||||||||
w: ||~ wav- ing to||||||||
V:3
 [E,G,][E,G,][E,G,][E,G,] [E,G,]>[E,B,] [E,B,][E,B,] | [E,E][E,E][E,E][E,B,] [E,E]4 | %2
w: ~ ~ ~ ~ ~ ~ ~ ~|~ ~ ~ ~ ~|
 [B,,D][B,,D][B,,B,][B,,B,] [B,,B,]>[B,,B,] [B,,B,][D,B,] | [E,B,][C,C][F,C][F,C] (z A,G,F,) | %4
w: ~ ~ ~ ~ ~ ~ ~ ~|~ ~ ~ ~ * * *|
 [E,G,][E,G,][E,G,][E,G,] [E,G,]>[E,A,] [E,B,][E,B,] | [E,E][E,E][E,E][E,B,] [E,E]4 | %6
w: * ~ ~ ~ ~ ~ ~ ~|~ ~ ~ ~ ~|
 [E,B,] [D,B,]2 z [^C,B,] [C,B,]2 z | [D,=A,]>[D,A,] [D,A,]>([D,A,] [D,A,]B,,=A,,F,,) || %8
w: ~ ~ ~ ~|~ ~ ~ ~ * * * *|
 (B,B,)(B,B,) [E,B,]2 [B,,B,]2 | (B,>=A,) (B,>A,) (B,B,)(B,B,) | (B,B,)(B,B,) [E,B,]2 [B,,B,]2 | %11
w: ~ * Lift * thine eyes|that * stand * all * Rea- *|er’s * hand, * O ~|
 (B,>B,) (B,>B,) (B,B,)(B,B,) | [B,D] [B,D]2 [B,^C] [B,D][B,,B,][^C,B,][D,B,] | %13
w: ~ * ~ * ~ * ~ *|~ ~ ~ ~ ~ ~ ~|
 [E,B,] [E,B,]2 [E,B,] [E,B,][E,E][E,B,][E,E] | [F,E][F,D][F,C][F,B,] [F,=A,][E,A,][D,B,][C,C] | %15
w: ~ ~ ~ ~ ~ ~ ~|~ ~ ~ ~ ~ Far and wide|
 [B,,D][=B,,_D][C,C][^C,_C] _D,_B,,=C,D, | (B,B,)(B,B,) [E,B,]2 [B,,B,]2 | %17
w: the grain bends low, and In the breezes|to * and * fro, O|
 (B,>=A,) (B,>A,) (B,B,)(B,B,) | (B,B,)(B,B,) [E,B,]2 [B,,B,]2 | (B,>B,) (B,>B,) (B,B,)(B,B,) | %20
w: |||
 [B,D] [B,D]2 [B,^C] [B,D][B,,B,][^C,B,][D,B,] | [E,B,] [E,B,]2 [E,B,] [E,B,][E,E][E,B,][E,E] | %22
w: ||
 [A,E]>[A,D] [A,E][A,D] [=A,C][A,C][A,C][A,E] | [B,E]2 [B,,B,]2 [E,B,]4 |] %24
w: ||
V:4
 x8 | x8 | x8 | x4 [B,,B,]4 | x8 | x8 | x8 | x8 || E,2 B,,2 x4 | E,2 B,,2 E,2 B,,2 | E,2 B,,2 x4 | %11
w: |||~|||||to fields|dy for the glean-|~ ~|
 D,2 B,,2 D,2 B,,2 | x8 | x8 | x8 | x4 _B,4 | E,2 B,,2 x4 | E,2 B,,2 E,2 B,,2 | E,2 B,,2 x4 | %19
w: ~~ ~ ~ ~||||waves||||
 D,2 B,,2 D,2 B,,2 | x8 | x8 | x8 | x8 |] %24
w: |||||

